X:914
T:Will Ye Run Awa' Wi' Me
R:Reel
B:The Athole Collection
M:C|
L:1/8
K:A Minor
e|c<c c<c e2dc|BGdG BcdB|c<c c<c e2 dc|BGdB cAA:|
|:g|ecgc aceg|BGdG eGBd|ecgc aceg|ecdB cAA:|

